X:706
T:
N:Staikstrik (steklåt),
S:efter »Florsen» i Burs.
O:Gotland, Burs
R:marsch
M:3/8
L:1/16
K:C
(AB) (A^G) (A(B)|c)(B A)B (cd)|(ef) ed c(B|A)(^G B)^G E2|
(AB) (A^G) (AB)|(cB) (AB) (cd)|(ef) (ec) (B^G)|E4 z2:|
(ef) e(d e)(f|g)(^f g)(a g2)|e(f e)(d c)(B|
c)(A B)(^G E2)|A(B A)(^G A)(B|c)(B A)(B c)(d|e2)a2^g2|a4 z2:|

